;FLAVOR:Marlin
;TIME:370
;Filament used: 0.222641m
;Layer height: 0.2
;MINX:85.75
;MINY:90.5
;MINZ:0.2
;MAXX:134.25
;MAXY:129.5
;MAXZ:3.2
;TARGET_MACHINE.NAME:Creality Ender-3 S1
;Generated with Cura_SteamEngine 5.6.0
M82 ;absolute extrusion mode
; Ender 3 S1 Start G-code
; M413 S0 ; Disable power loss recovery
G92 E0 ; Reset Extruder

; Prep surfaces before auto home for better accuracy
M140 S63
M104 S205.0

G28 ; Home all axes
G1 Z10.0 F3000 ; Move Z Axis up little to prevent scratching of Heat Bed
G1 X0 Y0


;;; <CUSTOM START>

M117 Wait for Bed Temperature
M190 S63   ; Wait for bed temperature

M117 Bed Leveling
G28   ; Home
G29   ; Perform bed leveling

M117 Set Hotend Temperature
M104 S205.0   ; Start heading the extruder

G28 X Y   ; Home again
M420 S1   ; Bed leveling enabled (needed after G28)
M420 Z4   ; Bed Level Z Fade Height

M117 Wait for Hotend Temperature
M109 S205.0   ; Wait for extruder temperature

M117 Ready to Print

M300 P139 S523   ; The Muppet Show
M300 P121 S0
M300 P139 S523
M300 P121 S0
M300 P140 S440
M300 P120 S0
M300 P183 S494
M300 P77 S0
M300 P100 S440
M300 P30 S0
M300 P169 S494
M300 P91 S0
M300 P197 S392
M300 P452 S0
M300 P139 S523
M300 P121 S0
M300 P153 S523
M300 P107 S0
M300 P142 S440
M300 P118 S0
M300 P153 S494
M300 P107 S0
M300 P84 S440
M300 P46 S0
M300 P183 S392
M300 P726 S0
M300 P137 S330
M300 P123 S0
M300 P139 S330
M300 P121 S0
M300 P139 S392
M300 P121 S0
M300 P183 S349
M300 P77 S0
M300 P83 S330
M300 P47 S0
M300 P98 S349
M300 P162 S0
M300 P57 S523
M300 P51 S0
M300 P110 S294
M300 P63 S0
M300 P68 S294
M300 P40 S0
M300 P99 S330
M300 P144 S0
M300 P56 S330
M300 P90 S0
M300 P140 S330
M300 P120 S0
M300 P44 S330
M300 P85 S0
M300 P153 S392

;;; </CUSTOM START>


G1 X0.1 Y20 Z0.3 F5000.0 ; Move to start position
G1 X0.1 Y200.0 Z0.3 F1500.0 E15 ; Draw the first line
G1 X0.4 Y200.0 Z0.3 F5000.0 ; Move to side a little
G1 X0.4 Y20 Z0.3 F1500.0 E30 ; Draw the second line
G92 E0 ; Reset Extruder
G1 Z2.0 F3000 ; Move Z Axis up little to prevent scratching of Heat Bed
G1 X5 Y20 Z0.3 F5000.0 ; Move over to prevent blob squish
G92 E0
G92 E0
G1 F2400 E-0.8
;LAYER_COUNT:16
;LAYER:0
M107
M204 S2000
G0 F7500 X89.215 Y93.506 Z0.2
M204 S500
;TYPE:SKIRT
G1 F2400 E0
G1 F1500 X89.952 Y92.87 E0.03238
G1 X90.743 Y92.3 E0.06481
G1 X91.519 Y91.838 E0.09484
G1 X92.46 Y91.386 E0.12956
G1 X93.372 Y91.045 E0.16195
G1 X94.312 Y90.786 E0.19438
G1 X95.277 Y90.61 E0.227
G1 X96.402 Y90.515 E0.26456
G1 X97.08 Y90.5 E0.28711
G1 X121.036 Y90.511 E1.08389
G1 X121.698 Y90.522 E1.10591
G1 X122.67 Y90.581 E1.1383
G1 X123.632 Y90.727 E1.17066
G1 X124.492 Y90.932 E1.20007
G1 X125.032 Y91.085 E1.21874
G1 X125.97 Y91.4 E1.25165
G1 X127.195 Y91.96 E1.29645
G1 X127.582 Y92.167 E1.31104
G1 X128.44 Y92.682 E1.34433
G1 X129.338 Y93.346 E1.38147
G1 X129.706 Y93.651 E1.39737
G1 X130.431 Y94.312 E1.43
G1 X131.174 Y95.131 E1.46678
G1 X131.464 Y95.487 E1.48205
G1 X132.024 Y96.244 E1.51337
G1 X132.633 Y97.26 E1.55277
G1 X132.836 Y97.645 E1.56724
G1 X133.222 Y98.461 E1.59727
G1 X133.619 Y99.554 E1.63594
G1 X133.722 Y99.897 E1.64786
G1 X134.029 Y101.215 E1.69287
G1 X134.094 Y101.613 E1.70628
G1 X134.208 Y102.569 E1.7383
G1 X134.237 Y103.214 E1.75978
G1 X134.25 Y104.271 E1.79493
G1 X134.236 Y105.521 E1.83651
G1 X134.152 Y108.38 E1.93164
G1 X134.152 Y110.88 E2.01479
G1 X134.25 Y114.532 E2.1363
G1 X134.249 Y116.055 E2.18696
G1 X134.236 Y116.912 E2.21547
G1 X134.178 Y117.884 E2.24785
G1 X134.046 Y118.778 E2.27791
G1 X133.824 Y119.726 E2.31029
G1 X133.664 Y120.29 E2.32979
G1 X133.379 Y121.147 E2.35983
G1 X132.796 Y122.434 E2.40682
G1 X132.581 Y122.836 E2.42199
G1 X132.119 Y123.612 E2.45202
G1 X131.419 Y124.57 E2.49149
G1 X131.154 Y124.893 E2.50538
G1 X130.525 Y125.594 E2.53671
G1 X129.664 Y126.385 E2.5756
G1 X129.292 Y126.689 E2.59157
G1 X128.536 Y127.252 E2.62293
G1 X127.533 Y127.859 E2.66192
G1 X127.151 Y128.063 E2.67632
G1 X126.337 Y128.453 E2.70634
G1 X125.13 Y128.888 E2.74902
G1 X124.722 Y129.009 E2.76317
G1 X123.78 Y129.242 E2.79545
G1 X122.99 Y129.37 E2.82206
G1 X122.672 Y129.409 E2.83272
G1 X121.67 Y129.485 E2.86614
G1 X121.046 Y129.499 E2.8869
G1 X97.447 Y129.5 E3.67181
G1 X96.581 Y129.488 E3.70061
G1 X95.609 Y129.431 E3.733
G1 X94.646 Y129.285 E3.76539
G1 X93.7 Y129.056 E3.79777
G1 X92.776 Y128.744 E3.8302
G1 X91.886 Y128.352 E3.86255
G1 X91.063 Y127.901 E3.89376
G1 X90.224 Y127.34 E3.92733
G1 X89.52 Y126.774 E3.95738
G1 X88.767 Y126.049 E3.99214
G1 X88.13 Y125.313 E4.02452
G1 X87.6 Y124.582 E4.05455
G1 X87.064 Y123.685 E4.0893
G1 X86.642 Y122.807 E4.1217
G1 X86.3 Y121.895 E4.1541
G1 X86.04 Y120.957 E4.18647
G1 X85.862 Y119.988 E4.21924
G1 X85.764 Y118.809 E4.25859
G1 X85.75 Y118.158 E4.28025
G1 X85.751 Y102.038 E4.8164
G1 X85.763 Y101.314 E4.84049
G1 X85.822 Y100.34 E4.87294
G1 X85.969 Y99.379 E4.90527
G1 X86.2 Y98.432 E4.9377
G1 X86.5 Y97.544 E4.96887
G1 X86.906 Y96.619 E5.00247
G1 X87.341 Y95.827 E5.03252
G1 X87.923 Y94.961 E5.06723
G1 X88.537 Y94.204 E5.09965
G1 X89.215 Y93.506 E5.13201
M204 S2000
G0 F7500 X89.477 Y93.808
M204 S500
G1 F1500 X90.186 Y93.194 E5.16321
G1 X90.948 Y92.644 E5.19446
G1 X91.724 Y92.182 E5.2245
G1 X92.601 Y91.76 E5.25687
G1 X93.479 Y91.43 E5.28807
G1 X94.384 Y91.179 E5.3193
G1 X95.311 Y91.009 E5.35065
G1 X96.436 Y90.914 E5.3882
G1 X97.08 Y90.9 E5.40963
G1 X121.03 Y90.911 E6.20621
G1 X121.674 Y90.921 E6.22763
G1 X122.611 Y90.977 E6.25885
G1 X123.539 Y91.116 E6.29006
G1 X124.383 Y91.317 E6.31891
G1 X124.906 Y91.465 E6.33699
G1 X125.804 Y91.764 E6.36847
G1 X127.006 Y92.313 E6.41242
G1 X127.393 Y92.52 E6.42702
G1 X128.202 Y93.004 E6.45838
G1 X129.1 Y93.668 E6.49552
G1 X129.437 Y93.947 E6.51007
G1 X130.135 Y94.581 E6.54144
G1 X130.878 Y95.4 E6.57822
G1 X131.142 Y95.725 E6.59214
G1 X131.702 Y96.482 E6.62346
G1 X132.279 Y97.446 E6.66083
G1 X132.474 Y97.816 E6.67474
G1 X132.86 Y98.632 E6.70476
G1 X133.236 Y99.67 E6.74148
G1 X133.332 Y99.988 E6.75253
G1 X133.639 Y101.306 E6.79754
G1 X133.697 Y101.661 E6.8095
G1 X133.808 Y102.587 E6.84052
G1 X133.837 Y103.219 E6.86157
G1 X133.85 Y104.266 E6.89639
G1 X133.836 Y105.509 E6.93774
G1 X133.752 Y108.368 E7.03287
G1 X133.752 Y110.88 E7.11642
G1 X133.85 Y114.532 E7.23793
G1 X133.849 Y116.049 E7.28838
G1 X133.837 Y116.889 E7.31632
G1 X133.782 Y117.826 E7.34754
G1 X133.65 Y118.72 E7.3776
G1 X133.439 Y119.617 E7.40825
G1 X133.284 Y120.164 E7.42716
G1 X132.999 Y121.021 E7.4572
G1 X132.432 Y122.268 E7.50276
G1 X132.237 Y122.631 E7.51646
G1 X131.775 Y123.407 E7.5465
G1 X131.11 Y124.316 E7.58396
G1 X130.856 Y124.626 E7.59729
G1 X130.254 Y125.299 E7.62732
G1 X129.393 Y126.09 E7.66621
G1 X129.053 Y126.368 E7.68082
G1 X128.297 Y126.931 E7.71217
G1 X127.345 Y127.506 E7.74916
G1 X126.978 Y127.702 E7.763
G1 X126.164 Y128.092 E7.79302
G1 X125.016 Y128.505 E7.8336
G1 X124.625 Y128.621 E7.84716
G1 X123.716 Y128.847 E7.87832
G1 X122.941 Y128.973 E7.90443
G1 X122.642 Y129.01 E7.91445
G1 X121.661 Y129.085 E7.94718
G1 X121.046 Y129.099 E7.96764
G1 X97.452 Y129.1 E8.75238
G1 X96.604 Y129.089 E8.78058
G1 X95.668 Y129.035 E8.81177
G1 X94.739 Y128.896 E8.84301
G1 X93.827 Y128.677 E8.8742
G1 X92.937 Y128.378 E8.90543
G1 X92.078 Y128.001 E8.93663
G1 X91.255 Y127.55 E8.96785
G1 X90.475 Y127.028 E8.99906
G1 X89.771 Y126.462 E9.02911
G1 X89.069 Y125.787 E9.0615
G1 X88.454 Y125.078 E9.09271
G1 X87.924 Y124.347 E9.12275
G1 X87.424 Y123.511 E9.15515
G1 X87.016 Y122.666 E9.18635
G1 X86.685 Y121.788 E9.21756
G1 X86.433 Y120.884 E9.24878
G1 X86.261 Y119.955 E9.2802
G1 X86.163 Y118.776 E9.31955
G1 X86.15 Y118.158 E9.34011
G1 X86.151 Y102.044 E9.87606
G1 X86.162 Y101.338 E9.89955
G1 X86.218 Y100.4 E9.9308
G1 X86.358 Y99.473 E9.96198
G1 X86.579 Y98.56 E9.99323
G1 X86.867 Y97.704 E10.02326
G1 X87.257 Y96.812 E10.05564
G1 X87.692 Y96.02 E10.0857
G1 X88.234 Y95.212 E10.11806
G1 X88.824 Y94.482 E10.14928
G1 X89.477 Y93.808 E10.18049
M204 S2000
G0 F7500 X89.739 Y94.11
M204 S500
G1 F1500 X90.421 Y93.518 E10.21053
G1 X91.153 Y92.988 E10.24059
G1 X91.929 Y92.526 E10.27062
G1 X92.742 Y92.134 E10.30064
G1 X93.587 Y91.815 E10.33068
G1 X94.457 Y91.572 E10.36073
G1 X95.345 Y91.408 E10.39076
G1 X96.47 Y91.313 E10.42831
G1 X97.08 Y91.3 E10.44861
G1 X121.024 Y91.311 E11.24499
G1 X121.651 Y91.32 E11.26584
G1 X122.553 Y91.373 E11.2959
G1 X123.446 Y91.505 E11.32592
G1 X124.274 Y91.702 E11.35423
G1 X124.781 Y91.845 E11.37175
G1 X125.638 Y92.128 E11.40177
G1 X126.84 Y92.677 E11.44572
G1 X127.188 Y92.864 E11.45886
G1 X127.964 Y93.326 E11.4889
G1 X128.862 Y93.99 E11.52604
G1 X129.169 Y94.244 E11.53929
G1 X129.839 Y94.85 E11.56934
G1 X130.582 Y95.669 E11.60612
G1 X130.821 Y95.963 E11.61872
G1 X131.359 Y96.688 E11.64875
G1 X131.925 Y97.633 E11.68539
G1 X132.112 Y97.987 E11.6987
G1 X132.498 Y98.803 E11.72873
G1 X132.853 Y99.786 E11.76349
G1 X132.942 Y100.079 E11.77367
G1 X133.244 Y101.372 E11.81784
G1 X133.3 Y101.709 E11.8292
G1 X133.408 Y102.606 E11.85925
G1 X133.437 Y103.224 E11.87983
G1 X133.45 Y104.261 E11.91432
G1 X133.436 Y105.497 E11.95543
G1 X133.352 Y108.356 E12.05056
G1 X133.352 Y110.88 E12.13451
G1 X133.45 Y114.532 E12.25602
G1 X133.449 Y116.044 E12.30631
G1 X133.438 Y116.866 E12.33365
G1 X133.386 Y117.768 E12.3637
G1 X133.254 Y118.662 E12.39376
G1 X133.054 Y119.508 E12.42267
G1 X132.904 Y120.038 E12.44099
G1 X132.619 Y120.895 E12.47103
G1 X132.079 Y122.079 E12.51432
G1 X131.893 Y122.426 E12.52741
G1 X131.431 Y123.202 E12.55745
G1 X130.8 Y124.063 E12.59295
G1 X130.558 Y124.359 E12.60567
G1 X129.956 Y125.032 E12.6357
G1 X129.123 Y125.795 E12.67327
G1 X128.814 Y126.048 E12.68656
G1 X128.09 Y126.589 E12.71662
G1 X127.157 Y127.153 E12.75288
G1 X126.805 Y127.341 E12.76615
G1 X125.991 Y127.731 E12.79617
G1 X124.902 Y128.122 E12.83465
G1 X124.528 Y128.233 E12.84763
G1 X123.652 Y128.452 E12.87766
G1 X122.891 Y128.576 E12.90331
G1 X122.611 Y128.611 E12.91269
G1 X121.652 Y128.685 E12.94468
G1 X121.046 Y128.699 E12.96484
G1 X97.457 Y128.7 E13.74942
G1 X96.627 Y128.69 E13.77703
G1 X95.726 Y128.639 E13.80704
G1 X94.832 Y128.507 E13.8371
G1 X93.954 Y128.298 E13.86712
G1 X93.097 Y128.011 E13.89718
G1 X92.27 Y127.65 E13.92719
G1 X91.477 Y127.217 E13.95724
G1 X90.726 Y126.716 E13.98727
G1 X90.022 Y126.15 E14.01731
G1 X89.371 Y125.524 E14.04735
G1 X88.778 Y124.843 E14.07738
G1 X88.248 Y124.112 E14.10741
G1 X87.784 Y123.337 E14.13746
G1 X87.39 Y122.524 E14.16751
G1 X87.07 Y121.68 E14.19753
G1 X86.826 Y120.81 E14.22758
G1 X86.66 Y119.922 E14.25763
G1 X86.563 Y118.767 E14.29618
G1 X86.55 Y118.158 E14.31644
G1 X86.551 Y102.05 E14.85219
G1 X86.561 Y101.361 E14.87511
G1 X86.614 Y100.459 E14.90516
G1 X86.747 Y99.566 E14.93519
G1 X86.958 Y98.688 E14.96523
G1 X87.246 Y97.832 E14.99527
G1 X87.608 Y97.005 E15.02529
G1 X88.043 Y96.213 E15.05534
G1 X88.545 Y95.463 E15.08536
G1 X89.112 Y94.76 E15.1154
G1 X89.739 Y94.11 E15.14544
M204 S2000
G1 F2400 E14.34544
;MESH:TmpUsb'H2 Case B.stl
G0 F7500 X97.164 Y100.835
G0 X97.35 Y117.9
M204 S500
;TYPE:WALL-INNER
G1 F2400 E15.14544
G1 F1500 X121.426 Y117.9 E15.94621
G1 X121.781 Y117.791 E15.95856
G1 X122.029 Y117.658 E15.96792
G1 X122.237 Y117.487 E15.97688
G1 X122.408 Y117.279 E15.98583
G1 X122.54 Y117.032 E15.99515
G1 X122.649 Y116.677 E16.0075
G1 X122.649 Y114.804 E16.0698
G1 X116.247 Y114.803 E16.28273
G1 X116.016 Y114.757 E16.29056
G1 X115.833 Y114.638 E16.29782
G1 X115.717 Y114.486 E16.30418
G1 X115.647 Y114.297 E16.31088
G1 X115.647 Y110.599 E16.43388
G1 X115.53 Y110.761 E16.44053
G1 X115.229 Y110.979 E16.45289
G1 X114.933 Y111.074 E16.46323
G1 X114.656 Y111.095 E16.47247
G1 X114.31 Y111.013 E16.48429
G1 X113.934 Y110.739 E16.49977
G1 X113.803 Y110.557 E16.50723
G1 X113.635 Y110.045 E16.52515
G1 X113.703 Y109.615 E16.53963
G1 X114.024 Y109.173 E16.5578
G1 X114.272 Y109.02 E16.56749
G1 X114.567 Y108.926 E16.57779
G1 X114.933 Y108.926 E16.58996
G1 X115.228 Y109.019 E16.60025
G1 X115.532 Y109.239 E16.61273
G1 X115.647 Y109.399 E16.61928
G1 X115.647 Y105.102 E16.7622
G1 X115.717 Y104.915 E16.76884
G1 X115.833 Y104.763 E16.7752
G1 X116.016 Y104.643 E16.78248
G1 X116.17 Y104.598 E16.78782
G1 X122.65 Y104.598 E17.00334
G1 X122.65 Y103.329 E17.04555
G1 X122.54 Y102.968 E17.0581
G1 X122.408 Y102.721 E17.06742
G1 X122.237 Y102.513 E17.07637
G1 X122.029 Y102.342 E17.08533
G1 X121.782 Y102.209 E17.09466
G1 X121.457 Y102.111 E17.10595
G1 X97.35 Y102.101 E17.90775
G1 X97.35 Y117.9 E18.43323
M204 S2000
G0 F7500 X96.95 Y118.3
M204 S500
;TYPE:WALL-OUTER
G1 F1500 X121.332 Y118.3 E19.24418
G1 X121.599 Y118.265 E19.25313
G1 X121.935 Y118.162 E19.26482
G1 X122.253 Y117.992 E19.27681
G1 X122.521 Y117.771 E19.28837
G1 X122.742 Y117.503 E19.29992
G1 X122.912 Y117.186 E19.31189
G1 X123.049 Y116.737 E19.3275
G1 X123.049 Y114.404 E19.4051
G1 X116.193 Y114.403 E19.63313
G1 X116.051 Y114.247 E19.64014
G1 X116.047 Y110.799 E19.75482
G1 F1425.2 X116.026 Y110.488 E19.76574
G1 F1257.9 X115.991 Y110.244 E19.77551
G1 F1176.5 X115.993 Y109.844 E19.79248
G1 F1295.9 X116.039 Y109.513 E19.80534
G1 F1470.6 X116.047 Y109.202 E19.8159
G1 F1500 X116.051 Y105.153 E19.95057
G1 X116.109 Y105.053 E19.95441
G1 X116.212 Y105 E19.95826
G1 X123.05 Y104.998 E20.1857
G1 X123.05 Y103.267 E20.24327
G1 X122.912 Y102.814 E20.25902
G1 X122.742 Y102.497 E20.27098
G1 X122.521 Y102.229 E20.28254
G1 X122.253 Y102.008 E20.29409
G1 X121.936 Y101.838 E20.30605
G1 X121.517 Y101.711 E20.32062
G1 X96.95 Y101.701 E21.13772
G1 X96.95 Y118.3 E21.6898
M204 S2000
G1 F2400 E20.8898
G0 F7500 X97.22 Y118.03
G0 X121.297 Y117.739
G0 X121.718 Y117.642
G0 X121.94 Y117.523
G0 X122.273 Y117.19
G0 X122.488 Y116.652
G0 X122.477 Y114.976
G0 X115.722 Y114.754
G0 X115.465 Y111.02
G0 X114.556 Y111.192
G0 X114.763 Y110.709
M204 S500
G1 F2400 E21.6898
G1 F1500 X114.51 Y110.66 E21.69837
G1 X114.174 Y110.416 E21.71219
G1 X114.042 Y110.015 E21.72623
G1 X114.095 Y109.75 E21.73522
G1 X114.334 Y109.42 E21.74877
G1 X114.689 Y109.307 E21.76116
G1 X114.811 Y109.307 E21.76522
G1 X115.106 Y109.401 E21.77551
G1 X115.208 Y109.474 E21.77969
G1 F1321.6 X115.483 Y109.844 E21.79709
G1 F1176.5 X115.482 Y110.2 E21.81219
G1 F1239.7 X115.16 Y110.581 E21.83226
G1 F1401.9 X114.763 Y110.709 E21.84711
M204 S2000
G1 F2400 E21.04711
G0 F7500 X114.556 Y111.192
G0 X115.465 Y111.02
G0 X115.722 Y114.754
G0 X122.477 Y114.976
G0 X122.488 Y116.652
G0 X122.273 Y117.19
G0 X121.94 Y117.523
G0 X121.718 Y117.642
G0 X121.297 Y117.739
G0 X97.522 Y117.728
G0 X97.71 Y117.54
M204 S500
;TYPE:SKIN
G1 F2400 E21.84711
G1 F1500 X97.71 Y102.462 E22.3486
G1 X121.402 Y102.471 E23.1366
G1 X121.761 Y102.581 E23.14909
G1 X122.17 Y102.99 E23.16833
G1 X122.29 Y103.386 E23.18209
G1 X122.29 Y104.238 E23.21043
G1 X116.113 Y104.24 E23.41588
G1 X115.878 Y104.309 E23.42402
G1 X115.582 Y104.5 E23.43574
G1 X115.386 Y104.772 E23.44689
G1 X115.287 Y105.076 E23.45752
G1 X115.287 Y108.658 E23.57666
G1 X115.026 Y108.575 E23.58577
G1 X114.478 Y108.575 E23.604
G1 X114.172 Y108.673 E23.61468
G1 X113.795 Y108.862 E23.62871
G1 X113.363 Y109.477 E23.65371
G1 X113.292 Y109.908 E23.66824
G1 X113.304 Y110.166 E23.67683
G1 X113.458 Y110.676 E23.69455
G1 X113.679 Y110.997 E23.70751
G1 X114.135 Y111.336 E23.72641
G1 X114.549 Y111.46 E23.74078
G1 X115.004 Y111.424 E23.75596
G1 X115.287 Y111.339 E23.76579
G1 X115.287 Y114.362 E23.86633
G1 X115.387 Y114.629 E23.87582
G1 X115.582 Y114.902 E23.88698
G1 X115.878 Y115.095 E23.89873
G1 X116.212 Y115.16 E23.91005
G1 X122.289 Y115.164 E24.11217
G1 X122.289 Y116.62 E24.16059
G1 X122.167 Y117.012 E24.17425
G1 X121.815 Y117.364 E24.19081
G1 X121.65 Y117.453 E24.19704
G1 X121.272 Y117.54 E24.20994
G1 X97.71 Y117.54 E24.99362
M204 S2000
G1 F2400 E24.19362
G0 F7500 X97.45 Y117.54
G0 X121.297 Y117.739
G0 X121.718 Y117.642
G0 X121.94 Y117.523
G0 X122.273 Y117.19
G0 X122.488 Y116.652
G0 X122.477 Y114.976
G0 X115.722 Y114.754
G0 X115.465 Y111.02
G0 X113.823 Y110.859
G0 X113.551 Y109.555
G0 X114.988 Y108.774
G0 X115.465 Y108.979
G0 X115.819 Y104.77
G0 X122.478 Y104.426
G0 X122.489 Y103.356
G0 X122.273 Y102.809
G0 X122.003 Y102.54
G0 X121.339 Y102.211
G0 X121.338 Y102.671
M204 S500
G1 F2400 E24.99362
G1 F1500 X122.089 Y103.421 E25.02892
M204 S2000
G0 F7500 X122.089 Y103.987
M204 S500
G1 F1500 X120.773 Y102.671 E25.09082
