;FLAVOR:Marlin
;TIME:794
;Filament used: 0.623039m
;Layer height: 0.2
;MINX:85
;MINY:89
;MINZ:0.2
;MAXX:135
;MAXY:131
;MAXZ:7
;TARGET_MACHINE.NAME:Creality Ender-3 S1
;Generated with Cura_SteamEngine 5.6.0
M82 ;absolute extrusion mode
; Ender 3 S1 Start G-code
; M413 S0 ; Disable power loss recovery
G92 E0 ; Reset Extruder

; Prep surfaces before auto home for better accuracy
M140 S63
M104 S205.0

G28 ; Home all axes
G1 Z10.0 F3000 ; Move Z Axis up little to prevent scratching of Heat Bed
G1 X0 Y0


;;; <CUSTOM START>

M117 Wait for Bed Temperature
M190 S63   ; Wait for bed temperature

M117 Bed Leveling
G28   ; Home
G29   ; Perform bed leveling

M117 Set Hotend Temperature
M104 S205.0   ; Start heading the extruder

G28 X Y   ; Home again
M420 S1   ; Bed leveling enabled (needed after G28)
M420 Z4   ; Bed Level Z Fade Height

M117 Wait for Hotend Temperature
M109 S205.0   ; Wait for extruder temperature

M117 Ready to Print

M300 P139 S523   ; The Muppet Show
M300 P121 S0
M300 P139 S523
M300 P121 S0
M300 P140 S440
M300 P120 S0
M300 P183 S494
M300 P77 S0
M300 P100 S440
M300 P30 S0
M300 P169 S494
M300 P91 S0
M300 P197 S392
M300 P452 S0
M300 P139 S523
M300 P121 S0
M300 P153 S523
M300 P107 S0
M300 P142 S440
M300 P118 S0
M300 P153 S494
M300 P107 S0
M300 P84 S440
M300 P46 S0
M300 P183 S392
M300 P726 S0
M300 P137 S330
M300 P123 S0
M300 P139 S330
M300 P121 S0
M300 P139 S392
M300 P121 S0
M300 P183 S349
M300 P77 S0
M300 P83 S330
M300 P47 S0
M300 P98 S349
M300 P162 S0
M300 P57 S523
M300 P51 S0
M300 P110 S294
M300 P63 S0
M300 P68 S294
M300 P40 S0
M300 P99 S330
M300 P144 S0
M300 P56 S330
M300 P90 S0
M300 P140 S330
M300 P120 S0
M300 P44 S330
M300 P85 S0
M300 P153 S392

;;; </CUSTOM START>


G1 X0.1 Y20 Z0.3 F5000.0 ; Move to start position
G1 X0.1 Y200.0 Z0.3 F1500.0 E15 ; Draw the first line
G1 X0.4 Y200.0 Z0.3 F5000.0 ; Move to side a little
G1 X0.4 Y20 Z0.3 F1500.0 E30 ; Draw the second line
G92 E0 ; Reset Extruder
G1 Z2.0 F3000 ; Move Z Axis up little to prevent scratching of Heat Bed
G1 X5 Y20 Z0.3 F5000.0 ; Move over to prevent blob squish
G92 E0
G92 E0
G1 F2400 E-0.8
;LAYER_COUNT:35
;LAYER:0
M107
M204 S2000
G0 F7500 X88.456 Y92.013 Z0.2
M204 S500
;TYPE:SKIRT
G1 F2400 E0
G1 F1500 X89.192 Y91.377 E0.03235
G1 X89.923 Y90.846 E0.0624
G1 X90.82 Y90.311 E0.09714
G1 X91.698 Y89.89 E0.12953
G1 X92.611 Y89.548 E0.16195
G1 X93.548 Y89.289 E0.19429
G1 X94.515 Y89.111 E0.22699
G1 X95.655 Y89.015 E0.26504
G1 X96.312 Y89 E0.2869
G1 X121.433 Y89 E1.12243
G1 X122.311 Y89.013 E1.15163
G1 X123.684 Y89.118 E1.19743
G1 X124.768 Y89.312 E1.23406
G1 X125.36 Y89.463 E1.25438
G1 X125.79 Y89.586 E1.26925
G1 X126.745 Y89.908 E1.30278
G1 X127.929 Y90.451 E1.3461
G1 X128.335 Y90.67 E1.36144
G1 X129.176 Y91.174 E1.39405
G1 X130.094 Y91.849 E1.43195
G1 X130.484 Y92.172 E1.44879
G1 X131.206 Y92.824 E1.48115
G1 X131.842 Y93.507 E1.51219
G1 X132.275 Y94.049 E1.53526
G1 X132.59 Y94.47 E1.55275
G1 X133.136 Y95.274 E1.58508
G1 X133.578 Y96.062 E1.61513
G1 X134.068 Y97.175 E1.65557
G1 X134.238 Y97.63 E1.67173
G1 X134.536 Y98.557 E1.70411
G1 X134.751 Y99.5 E1.73628
G1 X134.857 Y100.23 E1.76082
G1 X134.911 Y100.711 E1.77692
G1 X134.975 Y101.683 E1.80932
G1 X135 Y103.033 E1.85422
G1 X134.999 Y117.577 E2.33796
G1 X134.987 Y118.315 E2.36251
G1 X134.894 Y119.545 E2.40354
G1 X134.829 Y120.024 E2.41961
G1 X134.653 Y120.982 E2.45201
G1 X134.413 Y121.852 E2.48203
G1 X134.201 Y122.457 E2.50335
G1 X134.059 Y122.823 E2.51641
G1 X133.552 Y123.937 E2.55712
G1 X133.342 Y124.334 E2.57205
G1 X132.847 Y125.173 E2.60445
G1 X132.284 Y125.96 E2.63664
G1 X131.779 Y126.558 E2.66267
G1 X131.484 Y126.881 E2.67722
G1 X130.797 Y127.57 E2.70958
G1 X130.106 Y128.152 E2.73963
G1 X129.639 Y128.495 E2.7589
G1 X129.19 Y128.806 E2.77707
G1 X128.374 Y129.318 E2.80911
G1 X127.178 Y129.905 E2.85342
G1 X126.715 Y130.098 E2.8701
G1 X125.832 Y130.418 E2.90134
G1 X124.888 Y130.669 E2.93383
G1 X123.812 Y130.85 E2.97012
G1 X123.322 Y130.907 E2.98653
G1 X122.293 Y130.977 E3.02083
G1 X121.01 Y131 E3.06351
G1 X96.549 Y130.999 E3.87709
G1 X95.816 Y130.987 E3.90147
G1 X94.844 Y130.928 E3.93386
G1 X93.881 Y130.782 E3.96625
G1 X92.934 Y130.551 E3.99868
G1 X92.046 Y130.251 E4.02985
G1 X91.154 Y129.861 E4.06223
G1 X90.271 Y129.374 E4.09577
G1 X89.52 Y128.872 E4.12581
G1 X88.705 Y128.214 E4.16065
G1 X88.007 Y127.536 E4.19302
G1 X87.371 Y126.799 E4.2254
G1 X86.801 Y126.009 E4.2578
G1 X86.339 Y125.233 E4.28783
G1 X85.885 Y124.291 E4.32261
G1 X85.556 Y123.413 E4.3538
G1 X85.287 Y122.44 E4.38738
G1 X85.11 Y121.473 E4.42007
G1 X85.014 Y120.308 E4.45895
G1 X85 Y119.658 E4.48058
G1 X85.001 Y100.53 E5.11678
G1 X85.012 Y99.826 E5.14019
G1 X85.07 Y98.853 E5.17261
G1 X85.216 Y97.89 E5.20501
G1 X85.446 Y96.943 E5.23742
G1 X85.759 Y96.021 E5.26981
G1 X86.151 Y95.131 E5.30215
G1 X86.621 Y94.277 E5.33457
G1 X87.164 Y93.469 E5.36695
G1 X87.73 Y92.766 E5.39697
G1 X88.456 Y92.013 E5.43176
M204 S2000
G0 F7500 X88.718 Y92.315
M204 S500
G1 F1500 X89.427 Y91.701 E5.46296
G1 X90.158 Y91.17 E5.49301
G1 X90.994 Y90.671 E5.52539
G1 X91.839 Y90.264 E5.55658
G1 X92.718 Y89.933 E5.58782
G1 X93.621 Y89.682 E5.619
G1 X94.549 Y89.51 E5.65039
G1 X95.689 Y89.414 E5.68844
G1 X96.321 Y89.4 E5.70946
G1 X121.427 Y89.4 E6.54449
G1 X122.281 Y89.412 E6.5729
G1 X123.614 Y89.512 E6.61736
G1 X124.669 Y89.7 E6.653
G1 X125.25 Y89.848 E6.67294
G1 X125.68 Y89.971 E6.68782
G1 X126.578 Y90.272 E6.71932
G1 X127.762 Y90.815 E6.76264
G1 X128.13 Y91.013 E6.77654
G1 X128.939 Y91.496 E6.80788
G1 X129.839 Y92.158 E6.84504
G1 X130.216 Y92.469 E6.8613
G1 X130.913 Y93.097 E6.8925
G1 X131.549 Y93.78 E6.92354
G1 X131.955 Y94.288 E6.94517
G1 X132.259 Y94.695 E6.96207
G1 X132.787 Y95.47 E6.99326
G1 X133.229 Y96.258 E7.02331
G1 X133.693 Y97.315 E7.0617
G1 X133.857 Y97.753 E7.07726
G1 X134.146 Y98.646 E7.10847
G1 X134.355 Y99.558 E7.13959
G1 X134.46 Y100.275 E7.1637
G1 X134.512 Y100.737 E7.17916
G1 X134.575 Y101.69 E7.21093
G1 X134.6 Y103.033 E7.2556
G1 X134.599 Y117.571 E7.73914
G1 X134.588 Y118.285 E7.76289
G1 X134.495 Y119.515 E7.80391
G1 X134.436 Y119.952 E7.81858
G1 X134.267 Y120.876 E7.84982
G1 X134.027 Y121.746 E7.87984
G1 X133.828 Y122.313 E7.89983
G1 X133.695 Y122.657 E7.91209
G1 X133.188 Y123.771 E7.9528
G1 X132.997 Y124.131 E7.96636
G1 X132.521 Y124.941 E7.9976
G1 X131.978 Y125.702 E8.0287
G1 X131.483 Y126.289 E8.05424
G1 X131.201 Y126.599 E8.06818
G1 X130.539 Y127.264 E8.09938
G1 X129.848 Y127.846 E8.12943
G1 X129.411 Y128.166 E8.14745
G1 X128.977 Y128.467 E8.16502
G1 X128.161 Y128.979 E8.19706
G1 X127.024 Y129.536 E8.23917
G1 X126.578 Y129.722 E8.25524
G1 X125.729 Y130.031 E8.28529
G1 X124.785 Y130.282 E8.31778
G1 X123.766 Y130.453 E8.35214
G1 X123.295 Y130.508 E8.36792
G1 X122.286 Y130.577 E8.40155
G1 X121.01 Y130.6 E8.444
G1 X96.555 Y130.599 E9.25738
G1 X95.84 Y130.588 E9.28116
G1 X94.903 Y130.532 E9.31238
G1 X93.975 Y130.393 E9.34359
G1 X93.062 Y130.172 E9.37483
G1 X92.206 Y129.884 E9.40487
G1 X91.314 Y129.494 E9.43725
G1 X90.493 Y129.041 E9.46844
G1 X89.742 Y128.539 E9.49848
G1 X88.983 Y127.927 E9.53091
G1 X88.309 Y127.274 E9.56213
G1 X87.695 Y126.565 E9.59332
G1 X87.145 Y125.804 E9.62455
G1 X86.683 Y125.028 E9.65459
G1 X86.26 Y124.151 E9.68697
G1 X85.931 Y123.273 E9.71816
G1 X85.68 Y122.368 E9.7494
G1 X85.509 Y121.44 E9.78078
G1 X85.413 Y120.275 E9.81966
G1 X85.4 Y119.658 E9.84019
G1 X85.401 Y100.536 E10.47619
G1 X85.411 Y99.849 E10.49904
G1 X85.466 Y98.912 E10.53026
G1 X85.605 Y97.984 E10.56147
G1 X85.825 Y97.071 E10.5927
G1 X86.125 Y96.182 E10.62391
G1 X86.502 Y95.323 E10.65511
G1 X86.953 Y94.5 E10.68632
G1 X87.476 Y93.72 E10.71756
G1 X88.042 Y93.017 E10.74758
G1 X88.718 Y92.315 E10.77999
M204 S2000
G0 F7500 X88.98 Y92.617
M204 S500
G1 F1500 X89.662 Y92.025 E10.81003
G1 X90.393 Y91.494 E10.84008
G1 X91.168 Y91.031 E10.8701
G1 X91.981 Y90.638 E10.90014
G1 X92.826 Y90.318 E10.93019
G1 X93.695 Y90.075 E10.9602
G1 X94.583 Y89.909 E10.99025
G1 X95.723 Y89.813 E11.0283
G1 X96.33 Y89.8 E11.04849
G1 X121.422 Y89.8 E11.88306
G1 X122.252 Y89.811 E11.91067
G1 X123.544 Y89.906 E11.95375
G1 X124.57 Y90.088 E11.98841
G1 X125.14 Y90.233 E12.00797
G1 X125.554 Y90.351 E12.02229
G1 X126.411 Y90.636 E12.05233
G1 X127.573 Y91.168 E12.09484
G1 X127.926 Y91.357 E12.10815
G1 X128.702 Y91.818 E12.13818
G1 X129.585 Y92.467 E12.17462
G1 X129.949 Y92.766 E12.19029
G1 X130.621 Y93.37 E12.22034
G1 X131.237 Y94.03 E12.25037
G1 X131.635 Y94.528 E12.27157
G1 X131.929 Y94.92 E12.28787
G1 X132.438 Y95.666 E12.31791
G1 X132.88 Y96.454 E12.34796
G1 X133.319 Y97.456 E12.38434
G1 X133.477 Y97.877 E12.3993
G1 X133.756 Y98.736 E12.42934
G1 X133.959 Y99.616 E12.45938
G1 X134.063 Y100.32 E12.48305
G1 X134.113 Y100.764 E12.49791
G1 X134.175 Y101.697 E12.52901
G1 X134.2 Y103.033 E12.57345
G1 X134.199 Y117.565 E13.05679
G1 X134.189 Y118.255 E13.07974
G1 X134.096 Y119.485 E13.12077
G1 X134.042 Y119.881 E13.13406
G1 X133.881 Y120.77 E13.16411
G1 X133.641 Y121.64 E13.19413
G1 X133.455 Y122.169 E13.21278
G1 X133.331 Y122.491 E13.22425
G1 X132.834 Y123.584 E13.26419
G1 X132.652 Y123.929 E13.27716
G1 X132.195 Y124.709 E13.30723
G1 X131.672 Y125.444 E13.33723
G1 X131.177 Y126.031 E13.36277
G1 X130.917 Y126.317 E13.37563
G1 X130.281 Y126.958 E13.40566
G1 X129.59 Y127.54 E13.43571
G1 X129.183 Y127.837 E13.45247
G1 X128.749 Y128.138 E13.47003
G1 X127.985 Y128.62 E13.50008
G1 X126.848 Y129.177 E13.54219
G1 X126.441 Y129.346 E13.55685
G1 X125.592 Y129.655 E13.5869
G1 X124.719 Y129.888 E13.61695
G1 X123.719 Y130.056 E13.65068
G1 X123.268 Y130.109 E13.66578
G1 X122.279 Y130.177 E13.69875
G1 X121.01 Y130.2 E13.74096
G1 X96.561 Y130.199 E14.55414
G1 X95.863 Y130.189 E14.57736
G1 X94.961 Y130.136 E14.60741
G1 X94.068 Y130.004 E14.63744
G1 X93.19 Y129.793 E14.66747
G1 X92.334 Y129.505 E14.69751
G1 X91.507 Y129.143 E14.72753
G1 X90.715 Y128.708 E14.75759
G1 X89.964 Y128.206 E14.78763
G1 X89.261 Y127.639 E14.81767
G1 X88.611 Y127.012 E14.84771
G1 X88.019 Y126.33 E14.87775
G1 X87.489 Y125.599 E14.90778
G1 X87.027 Y124.823 E14.93782
G1 X86.634 Y124.01 E14.96785
G1 X86.316 Y123.165 E14.99788
G1 X86.073 Y122.295 E15.02792
G1 X85.908 Y121.407 E15.05796
G1 X85.813 Y120.266 E15.09605
G1 X85.8 Y119.658 E15.11627
G1 X85.801 Y100.541 E15.75211
G1 X85.81 Y99.872 E15.77436
G1 X85.862 Y98.97 E15.80441
G1 X85.994 Y98.077 E15.83443
G1 X86.204 Y97.198 E15.86449
G1 X86.491 Y96.342 E15.89452
G1 X86.853 Y95.515 E15.92455
G1 X87.286 Y94.722 E15.9546
G1 X87.788 Y93.971 E15.98464
G1 X88.354 Y93.268 E16.01466
G1 X88.98 Y92.617 E16.0447
M204 S2000
G1 F2400 E15.2447
;MESH:TmpUsb'H2 Case A.stl
G0 F7500 X96.414 Y99.335
G0 X96.6 Y119.4
M204 S500
;TYPE:WALL-INNER
G1 F2400 E16.0447
G1 F1500 X121.975 Y119.4 E16.88868
G1 X122.339 Y119.364 E16.90084
G1 X122.658 Y119.231 E16.91234
G1 X122.944 Y119.041 E16.92376
G1 X123.157 Y118.78 E16.93496
G1 X123.29 Y118.532 E16.94432
G1 X123.371 Y118.268 E16.95351
G1 X123.4 Y117.975 E16.9633
G1 X123.4 Y102.025 E17.4938
G1 X123.366 Y101.666 E17.50579
G1 X123.207 Y101.282 E17.51962
G1 X122.983 Y101.01 E17.53133
G1 X122.77 Y100.835 E17.5405
G1 X122.541 Y100.712 E17.54915
G1 X122.27 Y100.629 E17.55858
G1 X121.977 Y100.6 E17.56837
G1 X96.6 Y100.6 E18.41241
G1 X96.6 Y119.4 E19.0377
M204 S2000
G0 F7500 X96.2 Y119.8
M204 S500
;TYPE:WALL-OUTER
G1 F1500 X121.994 Y119.8 E19.89561
G1 X122.437 Y119.756 E19.91042
G1 X122.848 Y119.586 E19.92521
G1 X123.216 Y119.341 E19.93992
G1 X123.492 Y119.003 E19.95443
G1 X123.661 Y118.686 E19.96638
G1 X123.765 Y118.347 E19.97817
G1 X123.8 Y117.994 E19.98997
G1 X123.8 Y102.006 E20.52174
G1 X123.758 Y101.569 E20.53634
G1 X123.554 Y101.074 E20.55414
G1 X123.267 Y100.726 E20.56915
G1 X122.994 Y100.501 E20.58091
G1 X122.695 Y100.341 E20.59219
G1 X122.349 Y100.235 E20.60423
G1 X121.997 Y100.2 E20.61599
G1 X96.2 Y100.2 E21.47401
G1 X96.2 Y119.8 E22.1259
M204 S2000
G0 F7500 X96.47 Y119.53
G0 X96.7 Y119.04
G0 X96.96 Y119.04
M204 S500
;TYPE:SKIN
G1 F1500 X96.96 Y100.96 E22.72725
G1 X121.963 Y100.96 E23.55885
G1 X122.395 Y101.046 E23.5735
G1 X122.734 Y101.273 E23.58707
G1 X122.894 Y101.468 E23.59546
G1 X123.011 Y101.756 E23.6058
G1 X123.04 Y102.038 E23.61523
G1 X123.04 Y118.134 E24.15058
G1 X122.852 Y118.582 E24.16674
G1 X122.698 Y118.771 E24.17485
G1 X122.485 Y118.913 E24.18337
G1 X122.252 Y119.009 E24.19175
G1 X121.96 Y119.04 E24.20151
G1 X96.96 Y119.04 E25.03302
M204 S2000
G1 F2400 E24.23302
G0 F7500 X96.7 Y119.04
G0 X96.772 Y100.772
G0 X122.17 Y100.721
G0 X122.123 Y101.193
M204 S500
G1 F2400 E25.03302
G1 F1500 X122.839 Y101.908 E25.06667
M204 S2000
G0 F7500 X122.839 Y102.474
M204 S500
G1 F1500 X121.524 Y101.16 E25.1285
M204 S2000
G0 F7500 X120.959 Y101.16
M204 S500
G1 F1500 X122.839 Y103.04 E25.21693
M204 S2000
G0 F7500 X122.839 Y103.605
M204 S500
G1 F1500 X120.393 Y101.16 E25.33196
M204 S2000
G0 F7500 X119.827 Y101.16
M204 S500
G1 F1500 X122.839 Y104.171 E25.47361
M204 S2000
G0 F7500 X122.839 Y104.737
M204 S500
G1 F1500 X119.262 Y101.16 E25.64186
M204 S2000
G0 F7500 X118.696 Y101.16
M204 S500
G1 F1500 X122.839 Y105.303 E25.83674
M204 S2000
G0 F7500 X122.839 Y105.868
M204 S500
G1 F1500 X118.13 Y101.16 E26.05821
M204 S2000
G0 F7500 X117.564 Y101.16
M204 S500
G1 F1500 X122.839 Y106.434 E26.30631
M204 S2000
G0 F7500 X122.839 Y107
M204 S500
G1 F1500 X116.999 Y101.16 E26.581
M204 S2000
G0 F7500 X116.433 Y101.16
M204 S500
G1 F1500 X122.839 Y107.565 E26.8823
M204 S2000
G0 F7500 X122.839 Y108.131
M204 S500
G1 F1500 X115.867 Y101.16 E27.21022
M204 S2000
G0 F7500 X115.302 Y101.16
M204 S500
G1 F1500 X122.839 Y108.697 E27.56473
M204 S2000
G0 F7500 X122.839 Y109.262
M204 S500
G1 F1500 X114.736 Y101.16 E27.94585
M204 S2000
G0 F7500 X114.17 Y101.16
M204 S500
G1 F1500 X122.839 Y109.828 E28.35359
M204 S2000
G0 F7500 X122.839 Y110.394
M204 S500
G1 F1500 X113.605 Y101.16 E28.78793
M204 S2000
G0 F7500 X113.039 Y101.16
M204 S500
G1 F1500 X122.839 Y110.959 E29.24887
M204 S2000
G0 F7500 X122.839 Y111.525
M204 S500
G1 F1500 X112.473 Y101.16 E29.73643
M204 S2000
G0 F7500 X111.908 Y101.16
M204 S500
G1 F1500 X122.839 Y112.091 E30.25059
M204 S2000
G0 F7500 X122.839 Y112.656
M204 S500
G1 F1500 X111.342 Y101.16 E30.79135
M204 S2000
G0 F7500 X110.776 Y101.16
M204 S500
G1 F1500 X122.839 Y113.222 E31.35873
M204 S2000
G0 F7500 X122.839 Y113.788
M204 S500
G1 F1500 X110.211 Y101.16 E31.95271
M204 S2000
G0 F7500 X109.645 Y101.16
M204 S500
G1 F1500 X122.839 Y114.354 E32.57332
M204 S2000
G0 F7500 X122.839 Y114.919
M204 S500
G1 F1500 X109.079 Y101.16 E33.22052
M204 S2000
G0 F7500 X108.514 Y101.16
M204 S500
G1 F1500 X122.839 Y115.485 E33.89433
M204 S2000
G0 F7500 X122.839 Y116.051
M204 S500
G1 F1500 X107.948 Y101.16 E34.59476
M204 S2000
G0 F7500 X107.382 Y101.16
M204 S500
G1 F1500 X122.839 Y116.616 E35.32178
M204 S2000
G0 F7500 X122.839 Y117.182
M204 S500
G1 F1500 X106.816 Y101.16 E36.07543
M204 S2000
G0 F7500 X106.251 Y101.16
M204 S500
G1 F1500 X122.839 Y117.748 E36.85568
M204 S2000
G0 F7500 X122.774 Y118.249
M204 S500
G1 F1500 X105.685 Y101.16 E37.65949
M204 S2000
G0 F7500 X105.119 Y101.16
M204 S500
G1 F1500 X122.57 Y118.61 E38.48031
M204 S2000
G0 F7500 X122.205 Y118.81
M204 S500
G1 F1500 X104.554 Y101.16 E39.31054
M204 S2000
G0 F7500 X103.988 Y101.16
M204 S500
G1 F1500 X121.668 Y118.839 E40.14213
M204 S2000
G0 F7500 X121.102 Y118.839
M204 S500
G1 F1500 X103.422 Y101.16 E40.97372
M204 S2000
G0 F7500 X102.857 Y101.16
M204 S500
G1 F1500 X120.536 Y118.839 E41.80528
M204 S2000
G0 F7500 X119.971 Y118.839
M204 S500
G1 F1500 X102.291 Y101.16 E42.63687
M204 S2000
G0 F7500 X101.725 Y101.16
M204 S500
G1 F1500 X119.405 Y118.839 E43.46846
M204 S2000
G0 F7500 X118.839 Y118.839
M204 S500
G1 F1500 X101.16 Y101.16 E44.30003
M204 S2000
G0 F7500 X100.594 Y101.16
M204 S500
G1 F1500 X118.274 Y118.839 E45.13162
M204 S2000
G0 F7500 X117.708 Y118.839
M204 S500
G1 F1500 X100.028 Y101.16 E45.96321
M204 S2000
G0 F7500 X99.463 Y101.16
M204 S500
G1 F1500 X117.142 Y118.839 E46.79477
M204 S2000
G0 F7500 X116.577 Y118.839
M204 S500
G1 F1500 X98.897 Y101.16 E47.62636
M204 S2000
G0 F7500 X98.331 Y101.16
M204 S500
G1 F1500 X116.011 Y118.839 E48.45795
M204 S2000
G0 F7500 X115.445 Y118.839
M204 S500
G1 F1500 X97.765 Y101.16 E49.28954
M204 S2000
